!!!OTL: Fenstergang (175), S. 385
!!!id: T0352
**kern
*clefG2
*k[f#]
*D:
{8d
=1
4d
8f#
4a
8f#
=2
4f#
8e
4e}
=3
{8g
=4
4g
8a
4b
8a
=5
4f#
8a
4a}
=6
{8d
=7
4d
8f#
4a
8f#
=8
4f#
8e
4e}
8r
=9
{4b
8dd
4a
8f#
=10
4g
8a
4f#}
=11
{8d
=12
4d
8f#
4a
8f#
=13
4f#
8e
4e}
8r
=14
{4b
8dd
4a
8f#
=15
4g
8a
4f#}
==
*-
!!!minrhy: 8
!!!meters: 6/8 ]  ZZ[6
!!!cut: Fenstergang (175), S. 385
!!!reg: Luxemburg
!!!trd: Singendes Volk, Esch-Alzette, 1937 posth.
!!!rhy1: X  X_XX_X  X_XX_
!!!rhy2: X  X_XX_X  X_XX_
!!!key: T0352  08  D 6/8 ]  ZZ[6
!!!mod: SECHSTONSKALA DUR ?]  AMBITUS[8
!!!kad: 252323
!!!akz: 1532_4635_1532_6543_1532_6543_
!!!fot: 'a__b__a__c__a__c__
!!!for: 'a__a__av_av_av_av_
!!!fok: '^a_~a_^a_Md_^a_Md_
!! PHRAS[VORWIEGEND AUFTAKTIG]
!!!fkt: Tage-. W&auml;chter-, Fenstergang-, St&auml;ndchenlieder, Liebeslied
!!!bem: Medernach, fff Leny Goeres, Savelborn, 7.2.1916
!! THILL, Mathias:
!! PR[32] 2K[3] 2G[9] 3K[12] 3G[3] 4A[3] 4Ü[0] 5A[0] 6K[0] 6G[0]
!! 7K[0] 7G[0] 8A[0] MEHR[0] SI[29] ABS[34] SR[12] SP[18]
!! ST[8] 2k[6] 2g[21] 3k[6] 3g[0] 4d[6] 4ü[0] 5d[0] 6k[0] 6g[0]
!! 7k[0] 7g[0] 8d[0] mehr[0] si[38] dm[-9] sr[26] sp[12]
!! 1F[43] 2F[49] 3F[8] 4F[0] LF[0] 2P[0] 3P[0] 4P[0] TRI[0] DF[3] AB[37]
!! TF[0] U3K[0] U3[0] U4[0] U4Ü[0] U5[6] U6K[0] U6[6] U7K[0] U7[3]
!! N1[17] N2K[0] N2[23] N3K[0] N3[23] N4[9] N4Ü[0] N5[14] N6K[0] N6[0]
!!!n7k: 0] N7[0] O1[0] O2K[0] O2[0] O3K[0] O3[0] HÖ[0
!!!RNB: symbol: &auml;      = a umlaut  (UTF-8: Å„)
